src/assets/img/VK-light.svg

<svg width="24" height="14" viewBox="0 0 24 14" fill="none" xmlns="http://www.w3.org/2000/svg">
<path d="M23.7861 12.3674C23.7216 12.2593 23.3226 11.3923 21.4024 9.61015C19.3923 7.74401 19.6623 8.04703 22.0835 4.82029C23.5581 2.85515 24.1476 1.65506 23.9631 1.14202C23.7876 0.652985 22.703 0.781994 22.703 0.781994L19.0968 0.802996C19.0968 0.802996 18.8297 0.766993 18.6302 0.885502C18.4367 1.00251 18.3122 1.27253 18.3122 1.27253C18.3122 1.27253 17.7407 2.79364 16.9786 4.08674C15.372 6.81544 14.7284 6.95945 14.4659 6.78994C13.8554 6.39541 14.0084 5.20282 14.0084 4.35676C14.0084 1.71206 14.4089 0.609481 13.2268 0.32446C12.8338 0.229953 12.5458 0.166948 11.5422 0.156448C10.2551 0.142947 9.16451 0.160948 8.54797 0.46247C8.13694 0.663485 7.82042 1.11202 8.01393 1.13752C8.25245 1.16902 8.79249 1.28303 9.07901 1.67306C9.44954 2.1756 9.43604 3.30668 9.43604 3.30668C9.43604 3.30668 9.64905 6.41941 8.9395 6.80644C8.45196 7.07196 7.78441 6.53042 6.35181 4.05374C5.61825 2.78614 5.06321 1.38354 5.06321 1.38354C5.06321 1.38354 4.9567 1.12252 4.76619 0.983009C4.53517 0.813497 4.21115 0.759493 4.21115 0.759493L0.781893 0.780494C0.781893 0.780494 0.267355 0.795495 0.0783407 1.01901C-0.0896718 1.21853 0.0648397 1.62956 0.0648397 1.62956C0.0648397 1.62956 2.75004 7.91052 5.78926 11.0773C8.57797 13.98 11.7432 13.7895 11.7432 13.7895H13.1773C13.1773 13.7895 13.6108 13.7415 13.8314 13.5029C14.0354 13.2839 14.0279 12.8729 14.0279 12.8729C14.0279 12.8729 13.9994 10.9482 14.8934 10.6647C15.774 10.3857 16.9051 12.5249 18.1037 13.3484C19.0097 13.971 19.6983 13.8345 19.6983 13.8345L22.904 13.7895C22.904 13.7895 24.5812 13.686 23.7861 12.3674Z" fill="#F5F5F5"/>
</svg>

<svg xmlns="http://www.w3.org/2000/svg" fill="none" viewBox="0 0 24 14"><path fill="#F5F5F5" d="M23.786 12.367c-.064-.108-.463-.975-2.384-2.757-2.01-1.866-1.74-1.563.681-4.79 1.475-1.965 2.065-3.165 1.88-3.678-.175-.489-1.26-.36-1.26-.36l-3.606.021s-.267-.036-.467.083c-.193.117-.318.387-.318.387s-.571 1.52-1.333 2.814c-1.607 2.728-2.25 2.872-2.513 2.703-.61-.395-.458-1.587-.458-2.433 0-2.645.4-3.748-.781-4.033-.393-.094-.681-.157-1.685-.168-1.287-.013-2.377.005-2.994.306-.411.201-.728.65-.534.676.238.031.778.145 1.065.535.37.503.357 1.634.357 1.634s.213 3.112-.496 3.5c-.488.265-1.156-.277-2.588-2.753-.734-1.268-1.289-2.67-1.289-2.67s-.106-.261-.297-.401a1.495 1.495 0 0 0-.555-.224L.781.78S.268.795.079 1.02c-.168.2-.013.61-.013.61s2.685 6.282 5.724 9.448c2.789 2.903 5.954 2.713 5.954 2.713h1.434s.434-.048.654-.287c.204-.22.197-.63.197-.63s-.029-1.925.865-2.208c.881-.28 2.012 1.86 3.21 2.683.907.623 1.595.486 1.595.486l3.206-.044s1.677-.104.882-1.423z"/></svg>
